frontend/public/svg/files/file-audio.svg

<svg width="142" height="174" viewBox="0 0 142 174" fill="none" xmlns="http://www.w3.org/2000/svg">
<g clip-path="url(#clip0)">
<path d="M140.776 92.2602C140.962 108.639 141.211 125.017 141.301 141.396C141.334 147.337 140.879 153.277 140.83 159.222C140.761 167.623 134.143 172.614 126.622 172.763C111.357 173.064 96.0863 173.44 80.8206 173.361C62.405 173.265 43.9902 172.799 25.5792 172.332C21.3186 172.123 17.0737 171.668 12.866 170.967C7.73537 170.234 2.70324 164.331 2.51946 158.744C2.05609 144.62 1.52117 130.496 1.36562 116.368C1.02367 85.2847 0.956693 54.1989 0.623274 23.116C0.57208 18.3399 0.701372 13.7154 2.67629 9.29959C4.15568 5.99359 6.29141 3.34314 9.95051 2.33303C11.0287 2.03481 12.137 1.85882 13.2545 1.80809C37.6046 0.770419 61.9548 -0.155811 86.3331 0.993436C90.4812 1.18902 94.6339 1.28208 98.7904 1.27289C100.715 1.26765 102.568 2.00741 103.96 3.33677C113.197 11.5292 122.428 19.7273 131.654 27.9315C132.996 29.1241 134.26 30.4158 135.677 31.5112C138.634 33.7986 139.431 36.9225 139.483 40.4372C139.695 53.7871 139.957 67.1369 140.165 80.4868C140.226 84.4117 140.174 88.3386 140.174 92.2648L140.776 92.2602ZM93.4281 9.47326C91.4775 9.30064 89.7159 9.03686 87.9497 9.00666C73.8056 8.76907 59.6613 8.55786 45.5168 8.37277C39.1219 8.28522 32.7272 8.22418 26.3327 8.19005C23.0838 8.1697 19.8258 8.07204 16.5874 8.26894C12.2661 8.53148 10.9055 9.8303 10.1054 14.1228C9.25978 18.4214 9.07187 22.8233 9.54818 27.1784C9.79325 29.2952 9.91619 31.4249 9.91638 33.5559C9.98549 73.3761 10.0411 113.197 10.0831 153.019C10.0438 154.028 10.0953 155.038 10.2367 156.038C11.1726 161.128 13.8564 163.98 19.2357 164.199C41.1239 165.098 63.0135 165.084 84.9082 164.692C95.6846 164.495 106.463 164.429 117.241 164.311C119.932 164.281 122.629 164.386 125.314 164.246C129.759 164.013 132.123 161.603 132.074 157.204C132.023 152.388 131.653 147.576 131.575 142.76C131.477 136.816 131.671 130.866 131.504 124.926C131.106 110.801 130.408 96.6826 130.139 82.5563C129.917 70.8945 130.139 59.2252 130.15 47.5588C130.15 46.6071 130.047 45.6553 130.014 45.1007C122.555 45.1007 115.488 45.1619 108.421 45.0655C106.18 45.0392 103.948 44.7751 101.763 44.2777C98.2345 43.4606 96.2163 41.2638 95.9544 37.4439C95.495 30.7348 94.8478 24.0383 94.2479 17.3391C94.028 14.7885 93.7228 12.2476 93.4281 9.47326ZM124.797 35.7921L125.086 35.1217L102.155 14.3183C103.37 22.3203 104.458 29.4797 105.591 36.9344L124.797 35.7921Z" fill="black"/>
<path d="M94.9218 98.5269C94.9218 105.593 94.935 112.659 94.91 119.727C95.0091 120.955 94.9035 122.191 94.5976 123.385C93.7719 125.665 93.7247 127.961 93.7188 130.324C93.7102 134.052 92.0287 135.487 88.2534 135.432C85.5493 135.391 82.9089 134.611 80.617 133.176C75.2553 129.91 69.941 126.562 64.5124 123.41C58.797 120.091 52.9963 116.912 47.1693 113.792C46.0764 113.276 44.8697 113.048 43.6638 113.129C39.7422 113.301 35.8324 113.771 31.9101 113.901C27.0631 114.061 25.3211 112.386 25.5115 107.493C25.7983 100.102 26.0326 92.6849 26.8977 85.3503C27.4569 80.6096 30.2568 76.7588 35.3835 77.3193C41.7499 78.0164 46.8792 75.5033 51.9973 72.2242C59.664 67.3122 67.9883 63.6327 76.3291 60.0162C79.3089 58.7237 82.2624 57.3714 85.1897 55.959C88.9846 54.1363 91.5102 55.1792 92.4592 59.3003C93.0165 61.8157 93.3637 64.3733 93.4976 66.9459C94.1217 77.465 94.6389 87.9907 95.1962 98.5158L94.9218 98.5269ZM84.868 64.3972C78.0461 65.9903 53.5036 77.6252 48.06 81.7857V106.257C61.6606 110.894 73.2108 119.164 85.5644 125.645C85.5644 122.12 85.5736 118.79 85.5644 115.46C85.5185 101.23 85.4929 86.999 85.3931 72.7683C85.3715 69.988 85.0518 67.2124 84.868 64.3972ZM33.8706 85.6942C33.6159 92.6783 33.3731 99.346 33.1171 106.355L40.1196 105.692V83.4423L33.8706 85.6942Z" fill="black"/>
<path d="M122.778 95.9442C122.587 105.783 120.252 114.549 115.527 122.654C115.035 123.529 114.436 124.34 113.743 125.068C113.23 125.6 112.566 125.957 111.84 126.092C111.114 126.227 110.364 126.133 109.695 125.821C108.994 125.577 108.405 125.086 108.039 124.439C107.673 123.793 107.555 123.035 107.707 122.308C107.947 120.882 108.353 119.488 108.916 118.156C111.263 112.338 113.409 106.465 114.47 100.25C116.004 91.2652 114.048 82.6665 111.596 74.121C111.557 74.016 111.512 73.9136 111.46 73.8138C110.507 71.6709 109.707 69.442 107.439 68.2127C107.181 68.0919 106.951 67.9186 106.764 67.7033C106.578 67.4881 106.438 67.2354 106.355 66.963C106.272 66.6906 106.247 66.4038 106.282 66.1209C106.317 65.838 106.41 65.5657 106.557 65.3215C107.123 64.5518 107.955 64.0216 108.891 63.8345C109.725 63.6537 110.594 63.7188 111.393 64.0217C112.191 64.3245 112.884 64.8519 113.389 65.5407C115.008 67.6548 116.769 69.8069 117.755 72.2354C120.889 79.757 122.592 87.7978 122.778 95.9442Z" fill="black"/>
<path d="M110.066 91.8482C110.212 96.7708 109.066 101.309 107.417 105.736C107.031 106.783 106.501 107.771 105.842 108.671C105.477 109.18 104.95 109.549 104.347 109.718C103.745 109.887 103.103 109.846 102.526 109.602C101.988 109.42 101.529 109.056 101.228 108.573C100.928 108.089 100.804 107.516 100.879 106.953C100.95 105.84 101.135 104.738 101.431 103.664C102.183 100.628 103.059 97.6253 103.767 94.5766C104.971 89.4021 103.777 84.6101 101.238 80.0722C100.748 79.196 100.029 78.3769 99.8151 77.4403C99.6405 76.6796 99.7902 75.3971 100.292 75.0401C100.692 74.7861 101.145 74.6273 101.617 74.5761C102.089 74.5249 102.566 74.582 103.011 74.7441C104.163 75.4175 105.147 76.3423 105.89 77.4495C108.896 81.6264 110.371 86.7111 110.066 91.8482Z" fill="black"/>
</g>
<defs>
<clipPath id="clip0">
<rect width="141.113" height="173.93" fill="white" transform="translate(0.602539 0.0107422)"/>
</clipPath>
</defs>
</svg>

<svg xmlns="http://www.w3.org/2000/svg" width="142" height="174" fill="none" viewBox="0 0 142 174"><g fill="#000" clip-path="url(#a)"><path d="M140.776 92.26c.186 16.379.435 32.757.525 49.136.033 5.941-.422 11.881-.471 17.826-.069 8.401-6.687 13.392-14.208 13.541-15.265.301-30.536.677-45.801.598-18.416-.096-36.83-.562-55.242-1.029a110 110 0 0 1-12.713-1.365c-5.13-.733-10.163-6.636-10.347-12.223-.463-14.124-.998-28.248-1.153-42.376-.342-31.083-.41-62.17-.743-93.252-.05-4.776.078-9.4 2.053-13.816 1.48-3.306 3.615-5.957 7.275-6.967a15 15 0 0 1 3.303-.525C37.605.77 61.955-.156 86.334.993q6.221.295 12.456.28a7.46 7.46 0 0 1 5.17 2.064q13.855 12.288 27.694 24.595c1.342 1.192 2.606 2.484 4.023 3.58 2.957 2.287 3.754 5.41 3.806 8.925.212 13.35.474 26.7.682 40.05.061 3.925.009 7.852.009 11.778zM93.428 9.473c-1.95-.172-3.712-.436-5.478-.466q-21.217-.357-42.433-.634a2297 2297 0 0 0-19.184-.183c-3.25-.02-6.507-.118-9.746.079-4.32.262-5.681 1.561-6.482 5.854a43.3 43.3 0 0 0-.557 13.055c.245 2.117.368 4.247.368 6.378q.104 59.73.167 119.463a17 17 0 0 0 .154 3.019c.936 5.09 3.62 7.942 8.999 8.161 21.888.899 43.778.885 65.672.493 10.777-.197 21.555-.263 32.333-.381 2.691-.03 5.388.075 8.073-.065 4.445-.233 6.809-2.643 6.76-7.042-.051-4.816-.421-9.628-.499-14.444-.098-5.944.096-11.894-.071-17.834-.398-14.125-1.096-28.243-1.365-42.37-.222-11.662 0-23.33.011-34.997 0-.952-.103-1.904-.136-2.458-7.459 0-14.526.06-21.593-.035a31.7 31.7 0 0 1-6.658-.788c-3.529-.817-5.547-3.014-5.809-6.834-.459-6.71-1.106-13.406-1.706-20.105-.22-2.55-.525-5.091-.82-7.866m31.369 26.32.289-.671-22.931-20.804 3.436 22.616z"/><path d="M94.922 98.527c0 7.066.013 14.132-.012 21.2a11.1 11.1 0 0 1-.312 3.658c-.826 2.28-.873 4.576-.88 6.939-.008 3.728-1.69 5.163-5.465 5.108a14.8 14.8 0 0 1-7.636-2.256c-5.362-3.266-10.676-6.614-16.105-9.766-5.715-3.319-11.516-6.498-17.343-9.618a7.1 7.1 0 0 0-3.505-.663c-3.922.172-7.832.642-11.754.772-4.847.16-6.589-1.515-6.398-6.408.286-7.391.52-14.808 1.386-22.143.559-4.74 3.359-8.591 8.485-8.03 6.367.696 11.496-1.817 16.614-5.096 7.667-4.912 15.991-8.591 24.332-12.208a242 242 0 0 0 8.86-4.057c3.796-1.823 6.321-.78 7.27 3.341a46.5 46.5 0 0 1 1.039 7.646c.624 10.519 1.14 21.045 1.698 31.57zm-10.054-34.13C78.046 65.99 53.504 77.625 48.06 81.786v24.471c13.6 4.637 25.15 12.907 37.504 19.388 0-3.525.01-6.855 0-10.185-.045-14.23-.071-28.461-.17-42.692-.023-2.78-.342-5.556-.526-8.37M33.871 85.694l-.754 20.661 7.003-.663v-22.25zm88.907 10.25c-.191 9.839-2.526 18.605-7.251 26.71a12 12 0 0 1-1.784 2.414 3.54 3.54 0 0 1-4.048.753 3.06 3.06 0 0 1-1.988-3.513c.24-1.426.646-2.82 1.209-4.152 2.347-5.818 4.493-11.691 5.554-17.906 1.534-8.985-.422-17.583-2.874-26.129a3 3 0 0 0-.136-.307c-.953-2.143-1.753-4.372-4.021-5.601a2.04 2.04 0 0 1-1.084-1.25 2.03 2.03 0 0 1 .202-1.641 3.83 3.83 0 0 1 2.334-1.488 4.42 4.42 0 0 1 4.498 1.707c1.619 2.114 3.38 4.266 4.366 6.694a65.5 65.5 0 0 1 5.023 23.71"/><path d="M110.066 91.848c.146 4.923-1 9.461-2.649 13.888a12 12 0 0 1-1.575 2.935 2.75 2.75 0 0 1-3.316.931 2.46 2.46 0 0 1-1.647-2.649c.071-1.113.256-2.215.552-3.289.752-3.036 1.628-6.039 2.336-9.087 1.204-5.175.01-9.967-2.529-14.505-.49-.876-1.209-1.695-1.423-2.632-.174-.76-.025-2.043.477-2.4a3.1 3.1 0 0 1 2.719-.296 8.8 8.8 0 0 1 2.879 2.706 22.38 22.38 0 0 1 4.176 14.398"/></g><defs><clipPath id="a"><path fill="#fff" d="M.603.01h141.113v173.93H.603z"/></clipPath></defs></svg>
